X: 23797
T: Little Jenny
R: hornpipe
M: 4/4
K: Dmajor
|:A>G|(3FAd f>e d>cB>A|(3GBd g>f e>dc>B|(3Ace a>f g>Ac>e|(3dcd (3fdB A2 A>G|
(3FAd f>e d>cB>A|(3GBd g>f e>dc>B|(3Ace a>f g>Ac>e|d2 f2 d2:|
|:f>g|(3afd (3FAd f>ed>c|B>GB<d b2 e>f|g>ec>A E>Ac>e|(3dcd f>d A2 f>g|
(3afd (3FAd f>ed>c|B>GB<d b2 e>f|g>ec>A E>Ac>e|d2 f2 d2:|

